svgs/sharp-regular/arrow-up-big-small.svg

<svg xmlns="http://www.w3.org/2000/svg" viewBox="0 0 576 512"><!--! Font Awesome Pro 6.6.0 by @fontawesome - https://fontawesome.com License - https://fontawesome.com/license (Commercial License) Copyright 2024 Fonticons, Inc. --><path d="M368 208l0-128 128 0 0 128-128 0zm-48 48l48 0 128 0 48 0 0-48 0-128 0-48-48 0L368 32l-48 0 0 48 0 128 0 48zM160 33.3l-17 17-96 96-17 17L64 197.1l17-17 55-55L136 456l0 24 48 0 0-24 0-330.9 55 55 17 17 33.9-33.9-17-17-96-96-17-17zM432 432l-64 0 0-64 64 0 0 64zm-64 48l64 0 48 0 0-48 0-64 0-48-48 0-64 0-48 0 0 48 0 64 0 48 48 0z"/></svg>

<svg xmlns="http://www.w3.org/2000/svg" viewBox="0 0 576 512"><!--! Font Awesome Pro 6.4.2 by @fontawesome - https://fontawesome.com License - https://fontawesome.com/license (Commercial License) Copyright 2023 Fonticons, Inc. --><path d="M368 208V80H496V208H368zm-48 48h48H496h48V208 80 32H496 368 320V80 208v48zM160 33.3l-17 17-96 96-17 17L64 197.1l17-17 55-55V456v24h48V456 125.1l55 55 17 17 33.9-33.9-17-17-96-96-17-17zM432 432H368V368h64v64zm-64 48h64 48V432 368 320H432 368 320v48 64 48h48z"/></svg>
